__todo__/vivaldi.svg

<svg height="88" preserveAspectRatio="xMidYMid" viewBox="0 0 512 88" width="512" xmlns="http://www.w3.org/2000/svg" xmlns:xlink="http://www.w3.org/1999/xlink"><linearGradient id="a" x1="20.984803%" x2="75.846321%" y1="5.131764%" y2="100.365967%"><stop offset="0" stop-opacity=".2"/><stop offset=".79" stop-opacity=".05"/></linearGradient><path d="m512 18.1560284v58.0992907h-14.524823v-58.0992907zm-63.30644 0c7.640057 0 14.96783 3.0605617 20.371064 8.5084595 5.403234 5.4478616 8.438922 12.8368568 8.438922 20.5411859 0 7.704329-3.035688 15.0934695-8.438922 20.5413673-5.403234 5.4475348-12.731007 8.508278-20.371064 8.508278h-20.21129v-58.0992907zm-63.785759 0v45.3900709h25.41844v12.7092198h-39.943262v-58.0992907zm-61.682927 0 29.002076 58.0992907h-13.936567l-4.241611-8.8957276h-21.742934l-4.241611 8.8957276h-13.936567zm-72.73305 0 12.764777 28.7195688 12.764778-28.7195688h14.475075l-27.239853 58.0992907-27.228232-58.0992907zm-32.619484 0v58.0992907h-14.524822v-58.0992907zm-72.674224 0 12.764778 28.7195688 12.764777-28.7195688h14.463455l-27.228232 58.0992907-27.239853-58.0992907zm303.495444 11.9478286h-7.222468v34.2037061h7.222468c9.702582 0 16.26417-7.7660596 16.26417-17.1018893 0-9.3358298-6.5979-17.1018168-16.26417-17.1018168zm-125.468686 14.7506111-5.560465 11.9764425h11.12093z" fill="#333"/><path d="m43.574105 87.148573c19.0950581 0 29.7061673 0 36.6403177-6.9341503 6.9341503-6.9341504 6.9341503-17.5452596 6.9341503-36.6403177 0-19.0947677 0-29.7059859-6.9341503-36.64006358-6.9341504-6.93404142-17.5452596-6.93404142-36.6403177-6.93404142-19.0947677 0-29.7190945 0-36.64002727 6.93404142-6.92094537 6.93407768-6.93407773 17.54529588-6.93407773 36.64006358 0 19.0950581 0 29.7061673 6.93407773 36.6403177 6.93404137 6.9341503 17.54525957 6.9341503 36.64002727 6.9341503z" fill="#ef3939"/><path d="m71.9051348 27.4496999c-2.1035575-3.7929396-5.7220539-6.8987098-9.128488-9.5839501-3.4067972-2.6852403-6.7507745-4.3030514-10.9306553-5.4631489-4.1798809-1.1600613-8.4516312-1.1386009-12.7549731-.5931575-4.3037412.5454434-8.0065906 1.5277209-11.7647795 3.6938803-3.758189 2.1661594-6.67717 4.8184284-9.3056908 8.2685458-2.6285209 3.4501175-4.3750219 6.8761963-5.4652551 11.0739427-1.0902331 4.1976374-1.4853083 8.8484857-.8677492 13.1409339.6175229 4.2928113 1.3675484 8.3779177 3.5968908 12.0984511l.1838116.3148255 15.3500868 26.6098383c2.5474361.0700823 5.3049374.1005844 8.2726854.0918695h4.3592625c6.9610212.1496057 13.9253106-.0562837 20.8652709-.6169418 6.9461333-.7614639 11.935773-2.4681305 15.7568908-6.3143036 5.620017-5.6189277 6.6839602-13.6529702 6.8807716-26.6494184z" fill="url(#a)"/><path d="m66.6580426 20.4544726c-4.5705986-4.5673305-10.3925107-7.6767682-16.7293277-8.9352352-6.3371801-1.2584669-12.9049419-.6094615-18.8730826 1.8649873-5.9683222 2.4744488-11.0692221 6.6632261-14.6579427 12.0368658-3.5887205 5.3736397-5.5041089 11.6909208-5.5041089 18.1530145 0 6.4624567 1.9153884 12.7796652 5.5041089 18.1534865 3.5887206 5.3734581 8.6896205 9.562417 14.6579427 12.0367206 5.9681407 2.4743035 12.5359025 3.1235631 18.8730826 1.8649872 6.336817-1.2585759 12.1587291-4.3679773 16.7293277-8.9353078 3.0418609-3.0324199 5.4555234-6.6356653 7.1022751-10.6031206 1.6467518-3.9674553 2.4946383-8.2206865 2.4946383-12.5167659 0-4.2957163-.8478865-8.5491654-2.4946383-12.5165481-1.6467517-3.967419-4.0604142-7.5706281-7.1022751-10.6030843zm-1.9590355 15.0449566c-5.390888 9.3811836-10.7770553 18.758046-16.1588653 28.1305509-.4244879.8308199-1.0570439 1.5378156-1.8359375 2.0516312-.7785305.5138157-1.6772539.8173844-2.607932.8809305-1.0276312.1147461-2.0657929-.0835177-2.978678-.569373-.912522-.4858553-1.6572822-1.2364255-2.1358752-2.1529418-3.4053446-5.8654866-6.7843631-11.7701901-10.1633815-17.6621844-2.0685889-3.5771008-4.1284267-7.1629164-6.1795132-10.7575195-.4869084-.8071081-.7553997-1.7271103-.7791115-2.6694808s.1981912-1.8747189.6438854-2.7053209 1.0998559-1.5308437 1.8981401-2.0319501c.7982843-.50107 1.7132029-.7856839 2.6547745-.8258814 1.0135784-.0621662 2.0234894.1704851 2.9077243.6699212.8842712.4993997 1.6050655 1.2441963 2.0753429 2.1444448 1.5251427 2.6302275 3.0239955 5.260455 4.5230298 7.8908278 1.0911773 1.8936737 2.1427745 3.7873475 3.2604596 5.6548766.710627 1.2905305 1.7422525 2.3755347 2.9953816 3.1500709 1.2534922.7741731 2.6852766 1.2110071 4.1570042 1.2687433 2.2353702.1383489 4.4380596-.5886185 6.1516256-2.0309334 1.7135659-1.4423149 2.8061957-3.4884993 3.0520283-5.7151546 0-.3551319 0-.7102638.0787972-.8943659.0079886-1.4070922-.3072-2.7971178-.9201475-4.0636097-.3761929-.6975546-.5947915-1.4689316-.641271-2.2600624-.0464794-.7910945.0809759-1.5827699.3729249-2.3194326.2919489-.736699.7418553-1.4005197 1.3174014-1.9449464.5759092-.5444267 1.2636596-.9562054 2.0153191-1.2065407.7516596-.250299 1.5490724-.3330542 2.3363178-.2424193.7868822.0906349 1.5447149.3524448 2.219756.7670559.6754042.4146111 1.2516766.9720011 1.6885106 1.6330258.4368341.6610247.7240624 1.4097067.8409873 2.1934661.1481532 1.2598105-.1296341 2.5329475-.7886979 3.6165719z" fill="#fff"/></svg>

<?xml version="1.0" encoding="UTF-8"?>
<svg width="512px" height="88px" viewBox="0 0 512 88" version="1.1" xmlns="http://www.w3.org/2000/svg" xmlns:xlink="http://www.w3.org/1999/xlink" preserveAspectRatio="xMidYMid">
    <defs>
        <linearGradient x1="20.9848027%" y1="5.13176388%" x2="75.8463214%" y2="100.365967%" id="linearGradient-1">
            <stop stop-color="#000000" stop-opacity="0.2" offset="0%"></stop>
            <stop stop-color="#000000" stop-opacity="0.05" offset="79%"></stop>
        </linearGradient>
    </defs>
    <g>
        <path d="M512,18.1560284 L512,76.2553191 L497.475177,76.2553191 L497.475177,18.1560284 L512,18.1560284 Z M448.69356,18.1560284 C456.333617,18.1560284 463.66139,21.2165901 469.064624,26.6644879 C474.467858,32.1123495 477.503546,39.5013447 477.503546,47.2056738 C477.503546,54.9100028 474.467858,62.2991433 469.064624,67.7470411 C463.66139,73.1945759 456.333617,76.2553191 448.69356,76.2553191 L448.69356,76.2553191 L428.48227,76.2553191 L428.48227,18.1560284 Z M384.907801,18.1560284 L384.907801,63.5460993 L410.326241,63.5460993 L410.326241,76.2553191 L370.382979,76.2553191 L370.382979,18.1560284 L384.907801,18.1560284 Z M323.224874,18.1560284 L352.22695,76.2553191 L338.290383,76.2553191 L334.048772,67.3595915 L312.305838,67.3595915 L308.064227,76.2553191 L294.12766,76.2553191 L323.224874,18.1560284 Z M250.491824,18.1560284 L263.256601,46.8755972 L276.021379,18.1560284 L290.496454,18.1560284 L263.256601,76.2553191 L236.028369,18.1560284 L250.491824,18.1560284 Z M217.87234,18.1560284 L217.87234,76.2553191 L203.347518,76.2553191 L203.347518,18.1560284 L217.87234,18.1560284 Z M145.198116,18.1560284 L157.962894,46.8755972 L170.727671,18.1560284 L185.191126,18.1560284 L157.962894,76.2553191 L130.723041,18.1560284 L145.198116,18.1560284 Z M448.69356,30.103857 L441.471092,30.103857 L441.471092,64.3075631 L448.69356,64.3075631 C458.396142,64.3075631 464.95773,56.5415035 464.95773,47.2056738 C464.95773,37.869844 458.35983,30.103857 448.69356,30.103857 L448.69356,30.103857 Z M323.224874,44.8544681 L317.664409,56.8309106 L328.785339,56.8309106 L323.224874,44.8544681 Z" fill="#333333"></path>
        <g>
            <path d="M43.574105,87.148573 C62.6691631,87.148573 73.2802723,87.148573 80.2144227,80.2144227 C87.148573,73.2802723 87.148573,62.6691631 87.148573,43.574105 C87.148573,24.4793373 87.148573,13.8681191 80.2144227,6.93404142 C73.2802723,0 62.6691631,0 43.574105,0 C24.4793373,0 13.8550105,0 6.93407773,6.93404142 C0.0131323643,13.8681191 0,24.4793373 0,43.574105 C0,62.6691631 0,73.2802723 6.93407773,80.2144227 C13.8681191,87.148573 24.4793373,87.148573 43.574105,87.148573 Z" fill="#EF3939"></path>
            <path d="M71.9051348,27.4496999 C69.8015773,23.6567603 66.1830809,20.5509901 62.7766468,17.8657498 C59.3698496,15.1805095 56.0258723,13.5626984 51.8459915,12.4026009 C47.6661106,11.2425396 43.3943603,11.264 39.0910184,11.8094434 C34.7872772,12.3548868 31.0844278,13.3371643 27.3262389,15.5033237 C23.5680499,17.6694831 20.6490689,20.3217521 18.0205481,23.7718695 C15.3920272,27.221987 13.6455262,30.6480658 12.555293,34.8458122 C11.4650599,39.0434496 11.0699847,43.6942979 11.6875438,47.9867461 C12.3050667,52.2795574 13.0550922,56.3646638 15.2844346,60.0851972 L15.4682462,60.4000227 L30.818333,87.009861 C33.3657691,87.0799433 36.1232704,87.1104454 39.0910184,87.1017305 L43.4502809,87.1017305 C50.4113021,87.2513362 57.3755915,87.0454468 64.3155518,86.4847887 C71.2616851,85.7233248 76.2513248,84.0166582 80.0724426,80.1704851 C85.6924596,74.5515574 86.7564028,66.5175149 86.9532142,53.5210667 L71.9051348,27.4496999 Z" fill="url(#linearGradient-1)"></path>
            <path d="M66.6580426,20.4544726 C62.087444,15.8871421 56.2655319,12.7777044 49.9287149,11.5192374 C43.5915348,10.2607705 37.023773,10.9097759 31.0556323,13.3842247 C25.0873101,15.8586735 19.9864102,20.0474508 16.3976896,25.4210905 C12.8089691,30.7947302 10.8935807,37.1120113 10.8935807,43.574105 C10.8935807,50.0365617 12.8089691,56.3537702 16.3976896,61.7275915 C19.9864102,67.1010496 25.0873101,71.2900085 31.0556323,73.7643121 C37.023773,76.2386156 43.5915348,76.8878752 49.9287149,75.6292993 C56.2655319,74.3707234 62.087444,71.261322 66.6580426,66.6939915 C69.6999035,63.6615716 72.113566,60.0583262 73.7603177,56.0908709 C75.4070695,52.1234156 76.254956,47.8701844 76.254956,43.574105 C76.254956,39.2783887 75.4070695,35.0249396 73.7603177,31.0575569 C72.113566,27.0901379 69.6999035,23.4869288 66.6580426,20.4544726 L66.6580426,20.4544726 Z M64.6990071,35.4994292 C59.3081191,44.8806128 53.9219518,54.2574752 48.5401418,63.6299801 C48.1156539,64.4608 47.4830979,65.1677957 46.7042043,65.6816113 C45.9256738,66.195427 45.0269504,66.4989957 44.0962723,66.5625418 C43.0686411,66.6772879 42.0304794,66.4790241 41.1175943,65.9931688 C40.2050723,65.5073135 39.4603121,64.7567433 38.9817191,63.840227 C35.5763745,57.9747404 32.197356,52.0700369 28.8183376,46.1780426 C26.7497487,42.6009418 24.6899109,39.0151262 22.6388244,35.4205231 C22.151916,34.613415 21.8834247,33.6934128 21.8597129,32.7510423 C21.8360011,31.8086718 22.0579041,30.8763234 22.5035983,30.0457214 C22.9492925,29.2151194 23.6034542,28.5148777 24.4017384,28.0137713 C25.2000227,27.5127013 26.1149413,27.2280874 27.0565129,27.1878899 C28.0700913,27.1257237 29.0800023,27.358375 29.9642372,27.8578111 C30.8485084,28.3572108 31.5693027,29.1020074 32.0395801,30.0022559 C33.5647228,32.6324834 35.0635756,35.2627109 36.5626099,37.8930837 C37.6537872,39.7867574 38.7053844,41.6804312 39.8230695,43.5479603 C40.5336965,44.8384908 41.565322,45.923495 42.8184511,46.6980312 C44.0719433,47.4722043 45.5037277,47.9090383 46.9754553,47.9667745 C49.2108255,48.1051234 51.4135149,47.378156 53.1270809,45.9358411 C54.8406468,44.4935262 55.9332766,42.4473418 56.1791092,40.2206865 C56.1791092,39.8655546 56.1791092,39.5104227 56.2579064,39.3263206 C56.265895,37.9192284 55.9507064,36.5292028 55.3377589,35.2627109 C54.961566,34.5651563 54.7429674,33.7937793 54.6964879,33.0026485 C54.6500085,32.211554 54.7774638,31.4198786 55.0694128,30.6832159 C55.3613617,29.9465169 55.8112681,29.2826962 56.3868142,28.7382695 C56.9627234,28.1938428 57.6504738,27.7820641 58.4021333,27.5317288 C59.1537929,27.2814298 59.9512057,27.1986746 60.7384511,27.2893095 C61.5253333,27.3799444 62.283166,27.6417543 62.9582071,28.0563654 C63.6336113,28.4709765 64.2098837,29.0283665 64.6467177,29.6893912 C65.0835518,30.3504159 65.3707801,31.0990979 65.487705,31.8828573 C65.6358582,33.1426678 65.3580709,34.4158048 64.6990071,35.4994292 L64.6990071,35.4994292 Z" fill="#FFFFFF"></path>
        </g>
    </g>
</svg>
